img/icon-plus.svg

<svg width="16" height="16" fill="none" xmlns="http://www.w3.org/2000/svg"><path fill-rule="evenodd" clip-rule="evenodd" d="M10 0H6v6H0v4h6v6h4v-6h6V6h-6V0z" fill="#012F34"/></svg>

<svg width="16" height="16" viewBox="0 0 16 16" fill="none" xmlns="http://www.w3.org/2000/svg">
<path fill-rule="evenodd" clip-rule="evenodd" d="M10 0H6V6H0V10H6V16H10V10H16V6H10V0Z" fill="#012F34"/>
</svg>
